modules/base/images/unhidden_normal.svg

<?xml version="1.0" encoding="utf-8"?><svg xmlns="http://www.w3.org/2000/svg" viewBox="0 0 96 96" enable-background="new 0 0 96 96"><g fill="#A9AAAA"><path d="M45.9 53.6l36-36h-.1l11.2-11.1-6.4-6.4-19.2 19.1c-2.5-.5-5.1-1.3-7.9-2.7-18.4-9.2-33.1-8-33.1-8v51.7l-25.6 25.6 6.4 6.4 19.1-19.1 6.9-6.9 12.7-12.6zM26.3 91.2s6.9 1.2 6.9-3v-14.6l-6.9 6.9v10.7zM59.4 60.6c19.8 11.6 29-3.5 29-3.5v-38.7l-37.4 37.4c2.5 1.2 5.3 2.7 8.4 4.8z"/></g></svg>

<?xml version="1.0" encoding="utf-8"?>
<!-- Generator: Adobe Illustrator 17.1.0, SVG Export Plug-In . SVG Version: 6.00 Build 0)  -->
<!DOCTYPE svg PUBLIC "-//W3C//DTD SVG 1.1//EN" "http://www.w3.org/Graphics/SVG/1.1/DTD/svg11.dtd">
<svg version="1.1" id="Layer_1" xmlns="http://www.w3.org/2000/svg" xmlns:xlink="http://www.w3.org/1999/xlink" x="0px" y="0px"
	 viewBox="0 0 96 96" enable-background="new 0 0 96 96" xml:space="preserve">
<g>
	<path fill="#A9AAAA" d="M45.9,53.6l36-36c0,0,0,0-0.1,0L93,6.5l-6.4-6.4L67.4,19.2c-2.5-0.5-5.1-1.3-7.9-2.7
		c-18.4-9.2-33.1-8-33.1-8v51.7L0.8,85.8l6.4,6.4l19.1-19.1l0,0l6.9-6.9l0,0L45.9,53.6L45.9,53.6z"/>
	<path fill="#A9AAAA" d="M26.3,91.2c0,0,6.9,1.2,6.9-3c0-1.7,0-7.9,0-14.6l-6.9,6.9C26.3,80.5,26.3,91.2,26.3,91.2z"/>
	<path fill="#A9AAAA" d="M59.4,60.6c19.8,11.6,29-3.5,29-3.5V18.4L51,55.8C53.5,57,56.3,58.5,59.4,60.6z"/>
</g>
</svg>
